src/assets/images/svg/rs_school_js.svg

<svg width="553" height="206" viewBox="0 0 553 206" fill="none" xmlns="http://www.w3.org/2000/svg">
<g clip-path="url(#clip0_102_2)">
<path d="M285.4 68.0001L311.7 66.3001C312.3 70.6001 313.4 73.8001 315.2 76.1001C318.1 79.7001 322.1 81.5001 327.4 81.5001C331.3 81.5001 334.4 80.6001 336.5 78.7001C338.5 77.2001 339.7 74.8001 339.7 72.3001C339.7 69.9001 338.6 67.6001 336.7 66.1001C334.7 64.3001 330 62.5001 322.6 60.9001C310.5 58.2001 301.8 54.6001 296.7 50.0001C291.6 45.7001 288.7 39.4001 288.9 32.7001C288.9 28.1001 290.3 23.5001 292.9 19.7001C295.9 15.4001 300 12.0001 304.9 10.1001C310.2 7.8001 317.6 6.6001 326.9 6.6001C338.3 6.6001 347 8.7001 353 13.0001C359 17.2001 362.6 24.0001 363.7 33.3001L337.7 34.8001C337 30.8001 335.6 27.9001 333.3 26.0001C331 24.1001 328 23.2001 324.1 23.2001C320.9 23.2001 318.5 23.9001 316.9 25.2001C315.4 26.4001 314.4 28.2001 314.5 30.2001C314.5 31.7001 315.3 33.1001 316.5 34.0001C317.8 35.2001 320.9 36.3001 325.8 37.3001C337.9 39.9001 346.5 42.5001 351.8 45.2001C357.1 47.9001 360.9 51.2001 363.2 55.1001C365.6 59.1001 366.8 63.7001 366.7 68.4001C366.7 74.0001 365.1 79.6001 361.9 84.3001C358.6 89.2001 354 93.0001 348.6 95.3001C342.9 97.8001 335.7 99.1001 327.1 99.1001C311.9 99.1001 301.4 96.2001 295.5 90.3001C289.6 84.4001 286.1 77.0001 285.4 68.0001ZM6.3 97.6001V8.2001H52.4C60.9 8.2001 67.5 8.9001 72 10.4001C76.4 11.8001 80.3 14.7001 82.9 18.6001C85.8 22.9001 87.2 27.9001 87.1 33.1001C87.4 41.9001 82.9 50.3001 75.2 54.7001C72.2 56.4001 68.9 57.6001 65.5 58.2001C68 58.9001 70.5 60.1001 72.7 61.5001C74.4 62.9001 75.8 64.5001 77.1 66.2001C78.6 67.9001 79.9 69.8001 81 71.8001L94.4 97.7001H63L48.2 70.2001C46.3 66.7001 44.7 64.4001 43.2 63.3001C41.2 61.9001 38.8 61.2001 36.4 61.2001H34V97.5001H6.3V97.6001ZM34 44.4001H45.7C48.2 44.2001 50.6 43.8001 53 43.2001C54.8 42.9001 56.4 41.9001 57.5 40.4001C60.2 36.8001 59.8 31.7001 56.5 28.6001C54.7 27.1001 51.2 26.3001 46.2 26.3001H34V44.4001ZM0 174.2L26.3 172.5C26.9 176.8 28 180 29.8 182.3C32.6 185.9 36.7 187.8 42 187.8C45.9 187.8 49 186.9 51.1 185C53.1 183.4 54.3 181.1 54.3 178.6C54.3 176.2 53.2 173.9 51.3 172.4C49.3 170.6 44.6 168.8 37.1 167.2C25 164.5 16.3 160.9 11.2 156.3C6.1 152 3.2 145.7 3.4 139C3.4 134.4 4.8 129.8 7.4 126C10.4 121.7 14.5 118.3 19.4 116.4C24.7 114.1 32.1 112.9 41.4 112.9C52.8 112.9 61.5 115 67.5 119.3C73.5 123.6 77 130.3 78.1 139.6L52.1 141.1C51.4 137.1 50 134.2 47.7 132.3C45.5 130.4 42.4 129.5 38.5 129.6C35.3 129.6 32.9 130.3 31.3 131.7C29.7 132.9 28.8 134.7 28.9 136.7C28.9 138.2 29.7 139.6 30.9 140.5C32.2 141.7 35.3 142.8 40.2 143.8C52.3 146.4 60.9 149 66.2 151.7C71.5 154.4 75.3 157.7 77.6 161.6C80 165.6 81.2 170.2 81.2 174.8C81.2 180.4 79.5 185.9 76.4 190.6C73.1 195.5 68.5 199.3 63.1 201.6C57.4 204.1 50.2 205.4 41.6 205.4C26.4 205.4 15.9 202.5 10 196.6C4.1 190.6 0.8 183.2 0 174.2H0Z" fill="#F8F8F8"/>
<path d="M133 167.2L157.2 174.5C155.9 180.6 153.2 186.4 149.5 191.5C146.1 196 141.6 199.5 136.5 201.8C131.3 204.1 124.7 205.3 116.7 205.3C107 205.3 99 203.9 92.9 201.1C86.7 198.3 81.4 193.3 76.9 186.2C72.4 179.1 70.2 170 70.2 158.9C70.2 144.1 74.1 132.7 82 124.8C89.9 116.9 101 112.9 115.4 112.9C126.7 112.9 135.5 115.2 142 119.7C148.4 124.3 153.2 131.3 156.4 140.7L132 146.1C131.4 144 130.5 141.9 129.3 140.1C127.8 138 125.9 136.4 123.6 135.2C121.3 134 118.7 133.5 116.1 133.5C109.8 133.5 105 136 101.7 141.1C99.2 144.8 97.9 150.7 97.9 158.7C97.9 168.6 99.4 175.4 102.4 179.1C105.4 182.8 109.6 184.6 115.1 184.6C120.4 184.6 124.4 183.1 127.1 180.2C129.8 177.1 131.8 172.8 133 167.2ZM189.5 114.4H217.1V145.7H247.3V114.4H275.1V203.8H247.3V167.6H217.1V203.8H189.5V114.4V114.4Z" fill="#F8F8F8"/>
<path d="M271.3 159.1C271.3 144.5 275.4 133.1 283.5 125C291.6 116.9 303 112.8 317.5 112.8C332.4 112.8 343.8 116.8 351.9 124.8C360 132.8 364 144 364 158.4C364 168.9 362.2 177.4 358.7 184.1C355.3 190.7 350 196.1 343.5 199.7C336.8 203.4 328.5 205.3 318.6 205.3C308.5 205.3 300.2 203.7 293.6 200.5C286.8 197.1 281.2 191.8 277.5 185.3C273.4 178.3 271.3 169.6 271.3 159.1ZM298.9 159.2C298.9 168.2 300.6 174.7 303.9 178.7C307.2 182.6 311.8 184.6 317.6 184.6C323.5 184.6 328.1 182.7 331.4 178.8C334.7 174.9 336.3 168 336.3 158C336.3 149.6 334.6 143.4 331.2 139.6C327.8 135.7 323.2 133.8 317.4 133.8C312.3 133.6 307.4 135.8 304 139.7C300.6 143.6 298.9 150.1 298.9 159.2V159.2ZM392.3 159.1C392.3 144.5 396.4 133.1 404.5 125C412.6 116.9 424 112.8 438.5 112.8C453.4 112.8 464.9 116.8 472.9 124.8C480.9 132.8 485 144 485 158.4C485 168.9 483.2 177.4 479.7 184.1C476.3 190.7 471 196.1 464.5 199.7C457.8 203.4 449.5 205.3 439.6 205.3C429.5 205.3 421.2 203.7 414.6 200.5C407.8 197.1 402.2 191.8 398.5 185.3C394.4 178.3 392.3 169.6 392.3 159.1V159.1ZM419.9 159.2C419.9 168.2 421.6 174.7 424.9 178.7C428.2 182.6 432.8 184.6 438.6 184.6C444.5 184.6 449.1 182.7 452.4 178.8C455.7 174.9 457.3 168 457.3 158C457.3 149.6 455.6 143.4 452.2 139.6C448.8 135.7 444.2 133.8 438.4 133.8C433.3 133.6 428.3 135.8 425 139.7C421.6 143.6 419.9 150.1 419.9 159.2V159.2Z" fill="#F8F8F8"/>
<path d="M482.1 114.4H509.7V181.8H552.8V203.8H482V114.4H482.1Z" fill="#F8F8F8"/>
<path d="M451.679 109.241C479.466 88.3008 488.035 52.8041 470.817 29.9568C453.6 7.10944 417.117 5.56324 389.329 26.5032C361.542 47.4432 352.973 82.9399 370.191 105.787C387.408 128.635 423.891 130.181 451.679 109.241Z" fill="#F8F8F8"/>
<path d="M451.679 109.241C479.466 88.3008 488.035 52.8041 470.817 29.9568C453.6 7.10944 417.117 5.56324 389.329 26.5032C361.542 47.4432 352.973 82.9399 370.191 105.787C387.408 128.635 423.891 130.181 451.679 109.241Z" fill="#F8F8F8"/>
<path d="M451.679 109.241C479.466 88.3008 488.035 52.8041 470.817 29.9568C453.6 7.10944 417.117 5.56324 389.329 26.5032C361.542 47.4432 352.973 82.9399 370.191 105.787C387.408 128.635 423.891 130.181 451.679 109.241Z" fill="#F8F8F8" stroke="black" stroke-width="4" stroke-miterlimit="10"/>
<path d="M451.679 109.241C479.466 88.3008 488.035 52.8041 470.817 29.9568C453.6 7.10944 417.117 5.56324 389.329 26.5032C361.542 47.4432 352.973 82.9399 370.191 105.787C387.408 128.635 423.891 130.181 451.679 109.241Z" stroke="black" stroke-width="4" stroke-miterlimit="10"/>
<path d="M451.679 109.241C479.466 88.3008 488.035 52.8041 470.817 29.9568C453.6 7.10944 417.117 5.56324 389.329 26.5032C361.542 47.4432 352.973 82.9399 370.191 105.787C387.408 128.635 423.891 130.181 451.679 109.241Z" fill="#F8F8F8" stroke="black" stroke-width="4" stroke-miterlimit="10"/>
<path d="M451.679 109.241C479.466 88.3008 488.035 52.8041 470.817 29.9568C453.6 7.10944 417.117 5.56324 389.329 26.5032C361.542 47.4432 352.973 82.9399 370.191 105.787C387.408 128.635 423.891 130.181 451.679 109.241Z" stroke="black" stroke-width="4" stroke-miterlimit="10"/>
<path d="M392.4 61.3L402.4 54.3L414.7 71.8C416.8 74.6 418.4 77.6 419.6 80.9C420.3 83.4 420.1 86.1 419.1 88.5C417.8 91.5 415.7 94 412.9 95.8C409.6 98.1 406.8 99.4 404.4 99.8C402.1 100.2 399.7 99.8 397.5 98.8C395.1 97.6 393 95.9 391.4 93.7L400 85.7C400.7 86.8 401.6 87.8 402.6 88.6C403.3 89.1 404.1 89.4 405 89.4C405.7 89.4 406.4 89.1 406.9 88.7C407.9 88.1 408.6 86.9 408.5 85.7C408.2 84 407.5 82.3 406.4 81L392.4 61.3V61.3ZM422.4 72.4L431.5 65.2C432.5 66.4 433.8 67.3 435.2 67.8C437.2 68.4 439.3 68 441 66.7C442.2 65.9 443.2 64.8 443.6 63.4C444.2 61.6 443.2 59.6 441.4 59C441.1 58.9 440.8 58.8 440.5 58.8C439.3 58.7 437.2 59.2 434.1 60.5C429 62.6 425 63.4 422 63.1C419.1 62.8 416.4 61.3 414.8 58.8C413.6 57.1 413 55.1 412.9 53.1C412.9 50.8 413.5 48.5 414.8 46.6C416.7 43.9 419 41.6 421.8 39.8C426 36.9 429.7 35.5 432.9 35.5C436.1 35.5 439.1 37 441.9 40.1L432.9 47.2C431.1 44.9 427.7 44.4 425.4 46.2L425.1 46.5C424.1 47.1 423.4 48 423 49.1C422.7 49.9 422.9 50.8 423.4 51.5C423.8 52 424.4 52.4 425.1 52.4C425.9 52.5 427.3 52.1 429.3 51.2C434.3 49.1 438.1 47.9 440.7 47.5C442.9 47.1 445.2 47.3 447.3 48.2C449.2 49 450.8 50.4 451.9 52.1C453.3 54.1 454.1 56.5 454.2 59C454.3 61.6 453.6 64.1 452.2 66.3C450.4 69 448.1 71.3 445.4 73.1C439.9 76.9 435.4 78.5 431.8 77.9C427.9 77.3 424.7 75.3 422.4 72.4V72.4Z" fill="black"/>
</g>
<defs>
<clipPath id="clip0_102_2">
<rect width="552.8" height="205.3" fill="white"/>
</clipPath>
</defs>
</svg>

<svg id="Layer_1" xmlns="http://www.w3.org/2000/svg" xmlns:xlink="http://www.w3.org/1999/xlink" viewBox="0 0 552.8 205.3"><style>.st0{fill:#fff}.st1{clip-path:url(#SVGID_2_)}.st2{clip-path:url(#SVGID_4_)}.st3{clip-path:url(#SVGID_6_)}.st4{clip-path:url(#SVGID_8_)}.st5{fill:#fff;stroke:#000;stroke-width:4;stroke-miterlimit:10}.st6{clip-path:url(#SVGID_8_)}.st6,.st7{fill:none;stroke:#000;stroke-width:4;stroke-miterlimit:10}.st8,.st9{clip-path:url(#SVGID_10_)}.st9{fill:none;stroke:#000;stroke-width:4;stroke-miterlimit:10}</style><title>rs_school_js</title><path d="M285.4 68l26.3-1.7c.6 4.3 1.7 7.5 3.5 9.8 2.9 3.6 6.9 5.4 12.2 5.4 3.9 0 7-.9 9.1-2.8 2-1.5 3.2-3.9 3.2-6.4 0-2.4-1.1-4.7-3-6.2-2-1.8-6.7-3.6-14.1-5.2-12.1-2.7-20.8-6.3-25.9-10.9-5.1-4.3-8-10.6-7.8-17.3 0-4.6 1.4-9.2 4-13 3-4.3 7.1-7.7 12-9.6 5.3-2.3 12.7-3.5 22-3.5 11.4 0 20.1 2.1 26.1 6.4 6 4.2 9.6 11 10.7 20.3l-26 1.5c-.7-4-2.1-6.9-4.4-8.8s-5.3-2.8-9.2-2.8c-3.2 0-5.6.7-7.2 2-1.5 1.2-2.5 3-2.4 5 0 1.5.8 2.9 2 3.8 1.3 1.2 4.4 2.3 9.3 3.3 12.1 2.6 20.7 5.2 26 7.9 5.3 2.7 9.1 6 11.4 9.9 2.4 4 3.6 8.6 3.5 13.3 0 5.6-1.6 11.2-4.8 15.9-3.3 4.9-7.9 8.7-13.3 11-5.7 2.5-12.9 3.8-21.5 3.8-15.2 0-25.7-2.9-31.6-8.8S286.1 77 285.4 68zM6.3 97.6V8.2h46.1c8.5 0 15.1.7 19.6 2.2 4.4 1.4 8.3 4.3 10.9 8.2 2.9 4.3 4.3 9.3 4.2 14.5.3 8.8-4.2 17.2-11.9 21.6-3 1.7-6.3 2.9-9.7 3.5 2.5.7 5 1.9 7.2 3.3 1.7 1.4 3.1 3 4.4 4.7 1.5 1.7 2.8 3.6 3.9 5.6l13.4 25.9H63L48.2 70.2c-1.9-3.5-3.5-5.8-5-6.9-2-1.4-4.4-2.1-6.8-2.1H34v36.3H6.3zM34 44.4h11.7c2.5-.2 4.9-.6 7.3-1.2 1.8-.3 3.4-1.3 4.5-2.8 2.7-3.6 2.3-8.7-1-11.8-1.8-1.5-5.3-2.3-10.3-2.3H34v18.1zM0 174.2l26.3-1.7c.6 4.3 1.7 7.5 3.5 9.8 2.8 3.6 6.9 5.5 12.2 5.5 3.9 0 7-.9 9.1-2.8 2-1.6 3.2-3.9 3.2-6.4 0-2.4-1.1-4.7-3-6.2-2-1.8-6.7-3.6-14.2-5.2-12.1-2.7-20.8-6.3-25.9-10.9-5.1-4.3-8-10.6-7.8-17.3 0-4.6 1.4-9.2 4-13 3-4.3 7.1-7.7 12-9.6 5.3-2.3 12.7-3.5 22-3.5 11.4 0 20.1 2.1 26.1 6.4s9.5 11 10.6 20.3l-26 1.5c-.7-4-2.1-6.9-4.4-8.8-2.2-1.9-5.3-2.8-9.2-2.7-3.2 0-5.6.7-7.2 2.1-1.6 1.2-2.5 3-2.4 5 0 1.5.8 2.9 2 3.8 1.3 1.2 4.4 2.3 9.3 3.3 12.1 2.6 20.7 5.2 26 7.9 5.3 2.7 9.1 6 11.4 9.9 2.4 4 3.6 8.6 3.6 13.2 0 5.6-1.7 11.1-4.8 15.8-3.3 4.9-7.9 8.7-13.3 11-5.7 2.5-12.9 3.8-21.5 3.8-15.2 0-25.7-2.9-31.6-8.8-5.9-6-9.2-13.4-10-22.4z"/><path d="M133 167.2l24.2 7.3c-1.3 6.1-4 11.9-7.7 17-3.4 4.5-7.9 8-13 10.3-5.2 2.3-11.8 3.5-19.8 3.5-9.7 0-17.7-1.4-23.8-4.2-6.2-2.8-11.5-7.8-16-14.9-4.5-7.1-6.7-16.2-6.7-27.3 0-14.8 3.9-26.2 11.8-34.1s19-11.9 33.4-11.9c11.3 0 20.1 2.3 26.6 6.8 6.4 4.6 11.2 11.6 14.4 21l-24.4 5.4c-.6-2.1-1.5-4.2-2.7-6-1.5-2.1-3.4-3.7-5.7-4.9-2.3-1.2-4.9-1.7-7.5-1.7-6.3 0-11.1 2.5-14.4 7.6-2.5 3.7-3.8 9.6-3.8 17.6 0 9.9 1.5 16.7 4.5 20.4 3 3.7 7.2 5.5 12.7 5.5 5.3 0 9.3-1.5 12-4.4 2.7-3.1 4.7-7.4 5.9-13zm56.5-52.8h27.6v31.3h30.2v-31.3h27.8v89.4h-27.8v-36.2h-30.2v36.2h-27.6v-89.4z"/><path d="M271.3 159.1c0-14.6 4.1-26 12.2-34.1 8.1-8.1 19.5-12.2 34-12.2 14.9 0 26.3 4 34.4 12S364 144 364 158.4c0 10.5-1.8 19-5.3 25.7-3.4 6.6-8.7 12-15.2 15.6-6.7 3.7-15 5.6-24.9 5.6-10.1 0-18.4-1.6-25-4.8-6.8-3.4-12.4-8.7-16.1-15.2-4.1-7-6.2-15.7-6.2-26.2zm27.6.1c0 9 1.7 15.5 5 19.5 3.3 3.9 7.9 5.9 13.7 5.9 5.9 0 10.5-1.9 13.8-5.8s4.9-10.8 4.9-20.8c0-8.4-1.7-14.6-5.1-18.4-3.4-3.9-8-5.8-13.8-5.8-5.1-.2-10 2-13.4 5.9-3.4 3.9-5.1 10.4-5.1 19.5zm93.4-.1c0-14.6 4.1-26 12.2-34.1 8.1-8.1 19.5-12.2 34-12.2 14.9 0 26.4 4 34.4 12S485 144 485 158.4c0 10.5-1.8 19-5.3 25.7-3.4 6.6-8.7 12-15.2 15.6-6.7 3.7-15 5.6-24.9 5.6-10.1 0-18.4-1.6-25-4.8-6.8-3.4-12.4-8.7-16.1-15.2-4.1-7-6.2-15.7-6.2-26.2zm27.6.1c0 9 1.7 15.5 5 19.5 3.3 3.9 7.9 5.9 13.7 5.9 5.9 0 10.5-1.9 13.8-5.8 3.3-3.9 4.9-10.8 4.9-20.8 0-8.4-1.7-14.6-5.1-18.4-3.4-3.9-8-5.8-13.8-5.8-5.1-.2-10.1 2-13.4 5.9-3.4 3.9-5.1 10.4-5.1 19.5z"/><path d="M482.1 114.4h27.6v67.4h43.1v22H482v-89.4z"/><ellipse transform="rotate(-37.001 420.46 67.88)" class="st0" cx="420.5" cy="67.9" rx="63" ry="51.8"/><defs><ellipse id="SVGID_1_" transform="rotate(-37.001 420.46 67.88)" cx="420.5" cy="67.9" rx="63" ry="51.8"/></defs><clipPath id="SVGID_2_"><use xlink:href="#SVGID_1_" overflow="visible"/></clipPath><g class="st1"><path transform="rotate(-37.001 420.82 68.353)" class="st0" d="M330.9-14.2h179.8v165.1H330.9z"/><g id="Layer_2_1_"><defs><path id="SVGID_3_" transform="rotate(-37.001 420.82 68.353)" d="M330.9-14.2h179.8v165.1H330.9z"/></defs><clipPath id="SVGID_4_"><use xlink:href="#SVGID_3_" overflow="visible"/></clipPath><g id="Layer_1-2" class="st2"><ellipse transform="rotate(-37.001 420.46 67.88)" class="st0" cx="420.5" cy="67.9" rx="63" ry="51.8"/><defs><ellipse id="SVGID_5_" transform="rotate(-37.001 420.46 67.88)" cx="420.5" cy="67.9" rx="63" ry="51.8"/></defs><clipPath id="SVGID_6_"><use xlink:href="#SVGID_5_" overflow="visible"/></clipPath><g class="st3"><path transform="rotate(-37 420.799 68.802)" class="st0" d="M357.8 17h125.9v103.7H357.8z"/><defs><path id="SVGID_7_" transform="rotate(-37 420.799 68.802)" d="M357.8 17h125.9v103.7H357.8z"/></defs><clipPath id="SVGID_8_"><use xlink:href="#SVGID_7_" overflow="visible"/></clipPath><g class="st4"><ellipse transform="rotate(-37.001 420.46 67.88)" class="st5" cx="420.5" cy="67.9" rx="63" ry="51.8"/></g><path transform="rotate(-37 420.799 68.802)" class="st6" d="M357.8 17h125.9v103.7H357.8z"/><ellipse transform="rotate(-37.001 420.46 67.88)" class="st7" cx="420.5" cy="67.9" rx="63" ry="51.8"/><path transform="rotate(-37 420.799 68.802)" class="st0" d="M357.8 17h125.9v103.7H357.8z"/><defs><path id="SVGID_9_" transform="rotate(-37 420.799 68.802)" d="M357.8 17h125.9v103.7H357.8z"/></defs><clipPath id="SVGID_10_"><use xlink:href="#SVGID_9_" overflow="visible"/></clipPath><g class="st8"><ellipse transform="rotate(-37.001 420.46 67.88)" class="st5" cx="420.5" cy="67.9" rx="63" ry="51.8"/></g><path transform="rotate(-37 420.799 68.802)" class="st9" d="M357.8 17h125.9v103.7H357.8z"/><path transform="rotate(-37.001 420.82 68.353)" class="st7" d="M330.9-14.2h179.8v165.1H330.9z"/></g><ellipse transform="rotate(-37.001 420.46 67.88)" class="st7" cx="420.5" cy="67.9" rx="63" ry="51.8"/><path d="M392.4 61.3l10-7 12.3 17.5c2.1 2.8 3.7 5.8 4.9 9.1.7 2.5.5 5.2-.5 7.6-1.3 3-3.4 5.5-6.2 7.3-3.3 2.3-6.1 3.6-8.5 4-2.3.4-4.7 0-6.9-1-2.4-1.2-4.5-2.9-6.1-5.1l8.6-8c.7 1.1 1.6 2.1 2.6 2.9.7.5 1.5.8 2.4.8.7 0 1.4-.3 1.9-.7 1-.6 1.7-1.8 1.6-3-.3-1.7-1-3.4-2.1-4.7l-14-19.7zm30 11.1l9.1-7.2c1 1.2 2.3 2.1 3.7 2.6 2 .6 4.1.2 5.8-1.1 1.2-.8 2.2-1.9 2.6-3.3.6-1.8-.4-3.8-2.2-4.4-.3-.1-.6-.2-.9-.2-1.2-.1-3.3.4-6.4 1.7-5.1 2.1-9.1 2.9-12.1 2.6-2.9-.3-5.6-1.8-7.2-4.3-1.2-1.7-1.8-3.7-1.9-5.7 0-2.3.6-4.6 1.9-6.5 1.9-2.7 4.2-5 7-6.8 4.2-2.9 7.9-4.3 11.1-4.3 3.2 0 6.2 1.5 9 4.6l-9 7.1c-1.8-2.3-5.2-2.8-7.5-1l-.3.3c-1 .6-1.7 1.5-2.1 2.6-.3.8-.1 1.7.4 2.4.4.5 1 .9 1.7.9.8.1 2.2-.3 4.2-1.2 5-2.1 8.8-3.3 11.4-3.7 2.2-.4 4.5-.2 6.6.7 1.9.8 3.5 2.2 4.6 3.9 1.4 2 2.2 4.4 2.3 6.9.1 2.6-.6 5.1-2 7.3-1.8 2.7-4.1 5-6.8 6.8-5.5 3.8-10 5.4-13.6 4.8-3.9-.6-7.1-2.6-9.4-5.5z"/></g></g></g></svg>
